X: 39878
T: This Is My Love, Do You Like Her?
R: jig
M: 6/8
K: Adorian
|:AcA AGA|c3 d3|ege ede|g3 a2d|
e2f gfe|dBA G2A|Bdd dcB|A3 A3:|
|:aaa age|a3 b2a|g2e ede|g3 a2g|
e2f gfe|dBA G2A|Bdd dcB|A3 A3:|

